X:1
T:Wecome Voice, SMD
T:Wecome Voice, SMD
T:Lewis T. Hartsough, 1872
T:Public Domain Courtesy of the Cyber Hymnal™
C:Lewis T. Hartsough, 1872
Z:Public Domain
Z:Courtesy of the Cyber Hymnal™
%%score ( 1 2 ) ( 3 4 )
L:1/8
Q:1/4=102
M:3/4
K:Eb
V:1 treble 
V:2 treble 
V:3 bass 
V:4 bass 
V:1
 (EG) | [GB]3 [EG] [DF]E | E4 E2 | [DF]3 [FA] [Fc][FB] | [EG]4 [GB]2 | [Ge]3 [Bd] [Ac][GB] | %6
 [Ac][GB] [EG]2 E2 | [DF]3 E [EG][DF] | E4 [GB]2 | [Ge]3 [Bd] [Ac][GB] | [Ac]4 [GB]2 | %11
 [GB]3 [EG] [DF]E | [DF]4 [GB]2 | [EB]3 [Ec] [EG][DF] | E[DF] [EG]2 E2 | [DF]3 E [EG][DF] | E4 |] %17
V:2
 E2 | x5 E | E4 E2 | x6 | x6 | x6 | x4 E2 | x3 E x2 | E4 x2 | x6 | x6 | x5 E | x6 | x6 | %14
 E x2 E2 x | x3 E x2 | E4 |] %17
V:3
 (G,B,) | [E,E]3 [E,B,] [E,A,][E,G,] | [E,G,]4 [E,G,]2 | [B,,B,]3 [B,,B,] [D,B,][D,B,] | %4
 [E,B,]4 [E,B,]2 | [E,B,]3 [E,E] [E,E][E,E] | [E,E][E,E] [E,B,]2 [E,G,]2 | %7
 [B,,A,]3 [B,,G,] [B,,B,][B,,A,] | [E,G,]4 [E,B,]2 | [E,B,]3 [E,E] [E,E][E,E] | [A,E]4 [G,E]2 | %11
 [E,E]3 [E,B,] [E,A,][E,G,] | [B,,B,]4 [E,B,]2 | [E,G,]3 [E,A,] [E,B,][B,,A,] | %14
 [C,G,][B,,B,] [E,B,]2 [E,G,]2 | [B,,A,]3 [B,,G,] [B,,B,][B,,A,] | [E,G,]4 |] %17
V:4
 E,2 | x6 | x6 | x6 | x6 | x6 | x6 | x6 | x6 | x6 | x6 | x6 | x6 | x6 | x6 | x6 | x4 |] %17

